X: 4
T: 3. THE ROCKY MOUNTAIN HORNPIPE
C: Emery Martin
B: Sam Bayard, "Hill Country Tunes" 1944 #3
S: Played by Emery Martin, Dunbar, Fayette County, PA, Sep 29 1943. Composed by himself.
R: reel
Z: 2010 John Chambers <jc:trillian.mit.edu>
M: C|
L: 1/8
K: D
A,2- |\
A,2DE FEDE | F2[A2D2] [A2D2]A2 | BABc dBAF | F2[E2A,2] [E2A,2]FE |
D2DE FE D2 | F2[A2D2] [A2D2]B2- | BABc dBAA | F2D2 D2:: (3ABc |
d2(3efg fedd | c2dd B2A2 | BABc dedd | B2A2 A2(3ABc |
d2(3efg fedd | c2dd B2A2 | BABc dBAG | F2D2 D2 :|

%%sep 2 1 500
%%sep 1 1 500

